!!!!SEGMENT: Gsc2010-Christus_vincit_Christus_regnat.krn
!!!id: Gsc2010
!!!AGN: Motet
!!!SCT: Simon Frisch
!!!voices: 4
!!!COM: Mathieu Gascongne
!!!OTL: Christus vincit, Christus regnat
**kern	**text	**kern	**text	**kern	**text	**kern	**text
*part4	*part4	*part3	*part3	*part2	*part2	*part1	*part1
*staff4	*staff4	*staff3	*staff3	*staff2	*staff2	*staff1	*staff1
*I"Bassus	*	*I"Tenor	*	*I"Altus	*	*I"Superius	*
*I'B	*	*I'T	*	*I'A	*	*I'S	*
*clefF4	*	*clefGv2	*	*clefG2	*	*clefG2	*
*k[b-]	*	*k[b-]	*	*k[b-]	*	*k[b-]	*
*F:	*	*F:	*	*F:	*	*F:	*
*M2/1	*	*M2/1	*	*M2/1	*	*M2/1	*
*met(C|)	*	*met(C|)	*	*met(C|)	*	*met(C|)	*
!!section: Prima pars: Christus vincit, Christus regnat
!!!OMD: Prima pars: Christus vincit, Christus regnat
=1	=1	=1	=1	=1	=1	=1	=1
0G	Chris-	1r	.	0r	.	0r	.
.	.	[1d	Chris-	.	.	.	.
=2	=2	=2	=2	=2	=2	=2	=2
1F	-tus	1d]	.	0r	.	0r	.
1E	vin-	1c	-tus	.	.	.	.
=3	=3	=3	=3	=3	=3	=3	=3
1D	-cit,	1d	vin-	0r	.	0r	.
[1B-y	Chris-	1d	-cit,	.	.	.	.
=4	=4	=4	=4	=4	=4	=4	=4
2B-]	.	0g	Chris-	0r	.	1r	.
4A	.	.	.	.	.	.	.
4G	.	.	.	.	.	.	.
2B-y	.	.	.	.	.	[1dd	Chris-
2c	.	.	.	.	.	.	.
=5	=5	=5	=5	=5	=5	=5	=5
1d	.	1f	-tus	0a	Chris-	1dd]	.
1A	-stus	1e	reg-	.	.	1cc	-tus
=6	=6	=6	=6	=6	=6	=6	=6
2B-y	reg-	0d	-nat,	1g	-tus	1dd	vin-
4A	.	.	.	.	.	.	.
4G	.	.	.	.	.	.	.
2F	.	.	.	1a	vin-	1dd	-cit,
[2D	.	.	.	.	.	.	.
=7	=7	=7	=7	=7	=7	=7	=7
4D]	.	1r	.	1a	-cit,	1ff	Chris-
4E	.	.	.	.	.	.	.
4F	.	.	.	.	.	.	.
4G	.	.	.	.	.	.	.
1A	.	2r	.	1r	.	2ee	-tus
.	.	2c	Chris-	.	.	[2ff	reg-
=8	=8	=8	=8	=8	=8	=8	=8
1D	-nat,	2d	-tus	0a	Chris-	2ff]	.
.	.	1f	vin-	.	.	4ee	.
.	.	.	.	.	.	4dd	.
2r	.	.	.	.	.	1cc	-nat,
2A	Chris-	2e	.	.	.	.	.
=9	=9	=9	=9	=9	=9	=9	=9
2B-y	-tus	2d	-cit,	1g	-tus	0r	.
2c	vin-	2c	.	.	.	.	.
1F	-cit,	2r	.	1a	reg-	.	.
.	.	2c	Chris-	.	.	.	.
=10	=10	=10	=10	=10	=10	=10	=10
2r	.	2d	-tus	1a	-nat,	2r	.
2A	Chris-	1f	reg-	.	.	2cc	Chris-
2B-y	-tus	.	.	1r	.	2dd	-tus
2c	reg-	2e	.	.	.	2ee	.
=11	=11	=11	=11	=11	=11	=11	=11
1F	-nat,	2d	-nat,	0a	Chris-	2.ff	vin-
.	.	2c	Chris-	.	.	.	.
.	.	.	.	.	.	4ee	.
2r	.	2d	-tus	.	.	2dd	-cit,
2A	Chris-	[2f	im-	.	.	2cc	Chris-
=12	=12	=12	=12	=12	=12	=12	=12
2B-y	-tus	2f]	.	1g	-tus	2dd	-tus
2c	.	2e	.	.	.	2ee	.
2.F	im-	2d	.	[1a	im-	2ff	reg-
.	.	[2c	.	.	.	4ee	.
4G	.	.	.	.	.	4dd	.
=13	=13	=13	=13	=13	=13	=13	=13
2A	.	2c]	.	2a]	.	2cc	-nat,
2.G	.	4B-y	.	2d	-pe-	2dd	Chris-
.	.	4A	.	.	.	.	.
.	.	4B-y	.	1d	-rat.	2g	-tus
4F	.	4A	.	.	.	.	.
2D	.	[2d	.	.	.	[2b-y	im-
=14	=14	=14	=14	=14	=14	=14	=14
1E	.	2d]	.	1g	.	2b-]	.
.	.	2c	.	.	.	4a	.
.	.	.	.	.	.	4g	.
2D	.	2.d	.	2.f	.	2b-y	.
2F	.	.	.	.	.	[2a	.
.	.	4c	.	4e	.	.	.
=15	=15	=15	=15	=15	=15	=15	=15
2G	.	2B-y	.	2d	.	4a]	.
.	.	.	.	.	.	4g	.
2E	.	2G	.	2c	.	1g	-pe-
1D	-pe-	1A	-pe-	1d	.	.	.
.	.	.	.	.	.	2f#i	.
=16	=16	=16	=16	=16	=16	=16	=16
0G	-rat.	1G	-rat.	1r	.	0g	-rat.
.	.	1r	.	1g	Ex-	.	.
=17	=17	=17	=17	=17	=17	=17	=17
1r	.	2r	.	2f	-au-	0r	.
.	.	1g	Ex-	2e	-di	.	.
1d	Ex-	.	.	1f	Chris-	.	.
.	.	2f	.	.	.	.	.
=18	=18	=18	=18	=18	=18	=18	=18
2c	-au-	2e	-au-	0g	-te,	0r	.
2B-y	-di	2d	-di	.	.	.	.
1c	Chris-	1e	Chris-	.	.	.	.
=19	=19	=19	=19	=19	=19	=19	=19
2d	-te,	1d	-te,	0r	.	1dd	Ex-
2B-y	Ex-	.	.	.	.	.	.
2c	-au-	1g	Ex-	.	.	2cc	-au-
2G	-di	.	.	.	.	2b-y	-di
=20	=20	=20	=20	=20	=20	=20	=20
1A	Chris-	2f	-au-	1a	Ex-	1cc	Chris-
.	.	2e	-di	.	.	.	.
1D	-te,	1d	Chris-	2g	-au-	[1dd	-te,
.	.	.	.	2f	-di	.	.
=21	=21	=21	=21	=21	=21	=21	=21
2r	.	1G	-te,	1g	Chris-	1dd]	.
1G	Ex-	.	.	.	.	.	.
.	.	1d	Ex-	1a	-te,	1r	.
2F	.	.	.	.	.	.	.
=22	=22	=22	=22	=22	=22	=22	=22
2E	-au-	2c	-au-	2r	.	0r	.
2D	-di	2B-y	-di	2d	ut	.	.
1E	Chris-	1c	Chris-	1g	cle-	.	.
=23	=23	=23	=23	=23	=23	=23	=23
1D	-te,	0d	-te,	1f	-ro	2r	.
.	.	.	.	.	.	2dd	[ut
2r	.	.	.	2r	.	1ff	cle-
2D	ut	.	.	2a	Fran-	.	.
=24	=24	=24	=24	=24	=24	=24	=24
1G	cle-	2r	.	1b-y	-cis-	1dd	-ro]
.	.	2d	ut	.	.	.	.
2F	-ro	1f	cle-	1a	-co,	2r	.
2F	Fran-	.	.	.	.	2cc	Fran-
=25	=25	=25	=25	=25	=25	=25	=25
1B-y	-cis-	1d	-ro	2.f	Fran-	4b-y	-cis-
.	.	.	.	.	.	4a	.
.	.	.	.	.	.	1dd	.
.	.	.	.	4g	.	.	.
1A	-co,	1r	.	4a	.	.	.
.	.	.	.	4g	.	.	.
.	.	.	.	2a	.	2cc	.
=26	=26	=26	=26	=26	=26	=26	=26
2r	.	2r	.	2d	-cis-	2dd	.
2G	Fran-	2d	Fran-	1g	.	4cc	.
.	.	.	.	.	.	4b-y	.
1d	-cis-	1f	-cis-	.	.	1a	.
.	.	.	.	2f	.	.	.
=27	=27	=27	=27	=27	=27	=27	=27
1G	-co,	1d	-co,	1g	-co,	2g	-co,
.	.	.	.	.	.	1b-y	se-
2.G	se-	1r	.	2.g	se-	.	.
.	.	.	.	.	.	2b-y	-re-
4G	-re-	.	.	4g	-re-	.	.
=28	=28	=28	=28	=28	=28	=28	=28
2G	-nis-	2.d	se-	2g	-nis-	2b-y	-nis-
2G	-si-	.	.	2g	-si-	2b-y	-si-
.	.	4d	-re-	.	.	.	.
2D	-mo	2d	-nis-	2f	-mo	2a	-mo
2D	et	2d	-si-	2d	et	2b-y	et
=29	=29	=29	=29	=29	=29	=29	=29
1A	a	2c	-mo	2e	a	1cc	a
.	.	2c	et	2f	.	.	.
1G	de-	2d	a	2B-y	de-	1b-y	de-
.	.	2e	de-	2c	.	.	.
=30	=30	=30	=30	=30	=30	=30	=30
2F	-o	1f	-o	2.d	-o	2a	-o
1B-y	co-	.	.	.	.	1dd	co-
.	.	.	.	4c	.	.	.
.	.	2d	co-	4B-y	.	.	.
.	.	.	.	4A	.	.	.
2A	.	[2e	.	2c	.	2cc	.
=31	=31	=31	=31	=31	=31	=31	=31
2G	-ro-	2e]	.	2B-y	co-	1dd	.
2F	.	1d	.	1A	.	.	.
1E	-na-	.	.	.	.	1ee	.
.	.	2c	.	2G	.	.	.
=32	=32	=32	=32	=32	=32	=32	=32
1D	-to,	2.d	.	2A	.	2.ff	-ro-
.	.	.	.	1d	-ro-	.	.
.	.	4e	.	.	.	4ee	.
1r	.	2f	-ro-	.	.	4dd	.
.	.	.	.	.	.	4cc	.
.	.	[2g	.	2c	.	[2ee	.
=33	=33	=33	=33	=33	=33	=33	=33
0r	.	4g]	.	1B-y	-na-	4ee]	.
.	.	4f	.	.	.	4dd	.
.	.	4e	.	.	.	1dd	-na-
.	.	4d	.	.	.	.	.
.	.	1e	-na-	1A	-to,	.	.
.	.	.	.	.	.	2cc#i	.
=34	=34	=34	=34	=34	=34	=34	=34
0r	.	1d	-to,	1r	.	0dd	-to,
.	.	1r	.	[1f	mag-	.	.
=35	=35	=35	=35	=35	=35	=35	=35
1r	.	0f	mag-	1f]	.	0r	.
[1B-y	mag-	.	.	1d	-no	.	.
=36	=36	=36	=36	=36	=36	=36	=36
1B-]	.	1d	-no	1r	.	0b-y	mag-
1G	-no	2r	.	2r	.	.	.
.	.	[2B-y	et	[2d	et	.	.
=37	=37	=37	=37	=37	=37	=37	=37
1r	.	2B-]	.	2d]	.	1g	-no
.	.	2c	pa-	2e	pa-	.	.
2r	.	2d	-ci-	2f	-ci-	1dd	et
[2B-y	et	2d	-fi-	2g	-fi-	.	.
=38	=38	=38	=38	=38	=38	=38	=38
2B-]	.	2G	-co	1b-y	-co	2dd	pa-
2c	pa-	1g	re-	.	.	1ee	-ci-
2d	-ci-	.	.	1a	re-	.	.
2d	-fi-	4f	.	.	.	2dd	-fi-
.	.	4e	.	.	.	.	.
=39	=39	=39	=39	=39	=39	=39	=39
1B-y	-co	2f	.	1d	-gi	2dd	-co
.	.	2.g	-gi	.	.	1b-y	re-
2G	re-	.	.	1e	nos-	.	.
.	.	4f	.	.	.	.	.
[2c	.	4e	.	.	.	2g	-gi
.	.	4d	.	.	.	.	.
=40	=40	=40	=40	=40	=40	=40	=40
2c]	.	2e	.	2c	.	2a	nos-
2B-y	-gi	1d	nos-	2d	.	2b-y	.
1A	nos-	.	.	2e	.	1cc	.
.	.	2c	.	2f	.	.	.
=41	=41	=41	=41	=41	=41	=41	=41
1G	-tro,	0d	-tro	1g	-tro	1b-y	-tro
1B-y	vi-	.	.	[1f	vi-	1b-y	vi-
=42	=42	=42	=42	=42	=42	=42	=42
0F	-ta	1c	vi-	1f]	.	1a	-ta
.	.	1A	-ta	1f	-ta	1cc	.
=43	=43	=43	=43	=43	=43	=43	=43
1G	et	1B-y	et	2.d	et	1b-y	et
.	.	.	.	4e	.	.	.
2F	.	2c	.	2f	.	2a	vic-
2G	vic-	2B-y	vic-	[2d	vic-	[2b-y	.
=44	=44	=44	=44	=44	=44	=44	=44
1E	-to-	1G	-to-	2d]	.	2b-]	.
.	.	.	.	2c	.	4a	.
.	.	.	.	.	.	4g	.
2.D	.	2A	.	2d	-to-	2f	-to-
.	.	2d	.	[2f	.	[2a	.
4E	.	.	.	.	.	.	.
=45	=45	=45	=45	=45	=45	=45	=45
2F	.	2c	.	2f]	.	4a]	.
.	.	.	.	.	.	4g	.
2G	.	2B-y	.	2e	-ri-	1g	.
1D	-ri-	1A	-ri-	[1d	-a.	.	.
.	.	.	.	.	.	2f#i	-ri-
=46	=46	=46	=46	=46	=46	=46	=46
1G	-a.	0G	-a.	1d]	.	1g	-a.
1d	Sal-	.	.	2r	.	1r	.
.	.	.	.	2g	Sal-	.	.
=47	=47	=47	=47	=47	=47	=47	=47
2d	-va-	0r	.	2f	-va-	1a	Sal-
2c	-tor	.	.	2e	-tor	.	.
1d	mun-	.	.	1f	mun-	2b-y	-va-
.	.	.	.	.	.	2a	-tor
=48	=48	=48	=48	=48	=48	=48	=48
1G	-di,	1r	.	1g	-di,	1b-y	mun-
1r	.	1d	Sal-	2r	.	1a	-di,
.	.	.	.	2f	tu	.	.
=49	=49	=49	=49	=49	=49	=49	=49
1r	.	2d	-va-	2.a	il-	1r	.
.	.	2c	-tor	.	.	.	.
.	.	.	.	4g	-lum	.	.
1D	tu	1d	mun-	2g	ad-	1a	tu
.	.	.	.	2f#i	-ju-	.	.
=50	=50	=50	=50	=50	=50	=50	=50
2.d	il-	1G	-di.	1g	-va.	2.b-y	il-
4c	-lum	.	.	.	.	4a	-lum
2B-y	ad-	1r	.	1r	.	2g	ad-
2A	-ju-	.	.	.	.	2f	-ju-
=51	=51	=51	=51	=51	=51	=51	=51
1G	-va.	0r	.	2r	.	1g	-va.
.	.	.	.	2.g	Sanc-	.	.
1d	Sanc-	.	.	.	.	1r	.
.	.	.	.	4f	.	.	.
.	.	.	.	[2f	-ta	.	.
=52	=52	=52	=52	=52	=52	=52	=52
2d	-ta	0r	.	2f]	.	1a	Sanc-
2c	Ma-	.	.	2e	Ma-	.	.
1d	-ri-	.	.	1f	-ri-	2b-y	-ta
.	.	.	.	.	.	2a	Ma-
=53	=53	=53	=53	=53	=53	=53	=53
1G	-a,	1r	.	1g	-a,	1b-y	-ri-
1r	.	1d	Sanc-	2r	.	1a	-a,
.	.	.	.	2f	tu	.	.
=54	=54	=54	=54	=54	=54	=54	=54
1r	.	2d	-ta	2.a	il-	1r	.
.	.	2c	Ma-	.	.	.	.
.	.	.	.	4g	-lum	.	.
1D	tu	1d	-ri-	2g	ad-	1a	tu
.	.	.	.	2f#i	-ju-	.	.
=55	=55	=55	=55	=55	=55	=55	=55
2.d	il-	1G	-a.	1g	-va.	2.b-y	il-
4c	-lum	.	.	.	.	4a	-lum
2B-y	ad-	1r	.	1r	.	2g	ad-
2A	-ju-	.	.	.	.	2f	-ju-
=56	=56	=56	=56	=56	=56	=56	=56
1G	-va.	1r	.	1r	.	1g	-va.
1r	.	[1g	Sanc-	[1b-y	Sanc-	1r	.
=57	=57	=57	=57	=57	=57	=57	=57
0r	.	2g]	.	2b-]	.	1dd	Sanc-
.	.	2g	-te	2b-y	-te	.	.
.	.	2f	Mi-	2a	Mi-	2dd	-te
.	.	2e	-cha-	2g	-cha-	2cc	Mi-
=58	=58	=58	=58	=58	=58	=58	=58
2r	.	1d	-el,	2a	-el,	1dd	-cha-
2d	Tu	.	.	2f	tu	.	.
2c	il-	1r	.	2e	il-	1g	-el,
2B-y	-lum	.	.	2d	-lum	.	.
=59	=59	=59	=59	=59	=59	=59	=59
2.c	ad-	1r	.	2.e	ad-	0r	.
4G	-ju-	.	.	4d	-ju-	.	.
1G	-va.	[1g	Sanc-	2d	-va.	.	.
.	.	.	.	[2b-y	Sanc-	.	.
=60	=60	=60	=60	=60	=60	=60	=60
0r	.	2g]	.	2b-]	.	1dd	Sanc-
.	.	2g	-te	2b-y	-te	.	.
.	.	2f	Ga-	2a	Ga-	2dd	-te
.	.	2e	-bri-	2g	-bri-	2cc	Ga-
=61	=61	=61	=61	=61	=61	=61	=61
2r	.	1d	-el,	2a	-el,	1dd	-bri-
2d	Tu	.	.	2f	tu	.	.
2c	il-	1r	.	2e	il-	1g	-el,
2B-y	-lum	.	.	2d	-lum	.	.
=62	=62	=62	=62	=62	=62	=62	=62
2.c	ad-	1r	.	2.e	ad-	0r	.
4G	-ju-	.	.	4d	-ju-	.	.
1G	-va.	2r	.	[1d	-va.	.	.
.	.	[2g	Sanc-	.	.	.	.
=63	=63	=63	=63	=63	=63	=63	=63
2r	.	2g]	.	1d]	.	0r	.
1B-y	Sanc-	2f	.	.	.	.	.
.	.	2d	-te	2r	.	.	.
2A	-te	[2f	Pe-	[2a	Sanc-	.	.
=64	=64	=64	=64	=64	=64	=64	=64
1B-y	Pe-	2f]	.	2a]	.	2r	.
.	.	4e	.	2g	-te	1dd	Sanc-
.	.	4d	.	.	.	.	.
1A	-tre,	1e	-tre,	1a	Pe-	.	.
.	.	.	.	.	.	2cc	-te
=65	=65	=65	=65	=65	=65	=65	=65
1r	.	2r	.	2d	-tre,	1b-y	Pe-
.	.	2d	tu	2f	tu	.	.
2r	.	2d	il-	2f	il-	1a	-tre,
2A	tu	2c	-lum	[2e	-lum	.	.
=66	=66	=66	=66	=66	=66	=66	=66
2F	il-	2.d	ad-	4e]	.	0r	.
.	.	.	.	4d	.	.	.
2G	-lum	.	.	1d	ad-	.	.
.	.	4G	-ju-	.	.	.	.
2E	ad-	2G	-va.	.	.	.	.
2E	-ju-	[2g	Sanc-	2c#i	-ju-	.	.
=67	=67	=67	=67	=67	=67	=67	=67
2D	-va.	2g]	.	1d	-va.	0r	.
1B-y	Sanc-	2f	.	.	.	.	.
.	.	2d	-te	2r	.	.	.
2A	-te	[2f	Pau-	[2a	Sanc-	.	.
=68	=68	=68	=68	=68	=68	=68	=68
1B-y	Pau-	2f]	.	2a]	.	2r	.
.	.	4e	.	2g	-te	1dd	Sanc-
.	.	4d	.	.	.	.	.
1A	-le,	1e	-le,	1a	Pau-	.	.
.	.	.	.	.	.	2cc	-te
=69	=69	=69	=69	=69	=69	=69	=69
1r	.	2r	.	2d	-le,	1b-y	Pau-
.	.	2d	tu	2f	tu	.	.
2r	.	2d	il-	2f	il-	1a	-le,
2A	tu	2c	-lum	[2e	-lum	.	.
=70	=70	=70	=70	=70	=70	=70	=70
2F	il-	2.d	ad-	4e]	.	0r	.
.	.	.	.	4d	.	.	.
2G	-lum	.	.	1d	ad-	.	.
.	.	4G	-ju-	.	.	.	.
2E	ad-	1G	-va.	.	.	.	.
2E	-ju-	.	.	2c#i	-ju-	.	.
=71	=71	=71	=71	=71	=71	=71	=71
1D	-va.	2r	.	1d	-va.	1r	.
.	.	2d	Sanc-	.	.	.	.
1r	.	2f	-te	1a	Sanc-	2r	.
.	.	2f	Mar-	.	.	2a	Sanc-
=72	=72	=72	=72	=72	=72	=72	=72
2r	.	1e	-ti-	2g	-te	2cc	-te
2A	Sanc-	.	.	2e	Mar-	2cc	Mar-
2A	-te	1d	-ne,	2f	-ti-	1b-y	-ti-
2G	Mar-	.	.	2g	.	.	.
=73	=73	=73	=73	=73	=73	=73	=73
1A	-ti-	2r	.	1e	-ne	2a	-ne,
.	.	2c	tu	.	.	2cc	tu
1D	-ne,	2.d	il-	2r	.	1ff	il-
.	.	.	.	2d	tu	.	.
.	.	4d	-lum	.	.	.	.
=74	=74	=74	=74	=74	=74	=74	=74
0r	.	2c	ad-	2.g	il-	2ee	-lum
.	.	2B-y	-ju-	.	.	1dd	ad-
.	.	.	.	4g	-lum	.	.
.	.	1A	-va.	2f	ad-	.	.
.	.	.	.	2e	-ju-	2cc#i	-ju-
=75	=75	=75	=75	=75	=75	=75	=75
0r	.	2r	.	1d	-va.	1dd	-va.
.	.	2d	Sanc-	.	.	.	.
.	.	2f	-te	1a	Sanc-	2r	.
.	.	2f	Fran-	.	.	2a	Sanc-
=76	=76	=76	=76	=76	=76	=76	=76
2r	.	1e	-cis-	2g	-te	2cc	-te
2A	Sanc-	.	.	2e	Fran-	2cc	Fran-
2A	-te	1d	-ce,	2f	-cis-	1b-y	-cis-
2G	Fran-	.	.	2g	.	.	.
=77	=77	=77	=77	=77	=77	=77	=77
1A	-cis-	2r	.	1e	-ce,	2a	-ce,
.	.	2c	tu	.	.	2cc	tu
1D	-ce,	2.d	il-	2r	.	1ff	il-
.	.	.	.	2d	tu	.	.
.	.	4d	-lum	.	.	.	.
=78	=78	=78	=78	=78	=78	=78	=78
0r	.	2c	ad-	2.g	il-	2ee	-lum
.	.	2B-y	-ju-	.	.	1dd	ad-
.	.	.	.	4g	-lum	.	.
.	.	1A	-va.	2f	ad-	.	.
.	.	.	.	2e	-ju-	2cc	-ju-
=79	=79	=79	=79	=79	=79	=79	=79
1r	.	2r	.	1d	-va.	2dd	-va.
.	.	2d	Chris-	.	.	2dd	Chris-
2d	Chris-	2d	-tus	2a	Chris-	2ff	-tus
2c	-tus	2e	vin-	2a	-tus	2ee	.
=80	=80	=80	=80	=80	=80	=80	=80
2d	vin-	1f	-cit,	2b-y	vin-	2dd	vin-
2d	-cit,	.	.	2a	-cit,	2dd	-cit,
2d	Chris-	2d	Chris-	2a	Chris-	2ff	Chris-
2c	-tus	2e	-tus	2a	-tus	2ee	-tus
=81	=81	=81	=81	=81	=81	=81	=81
2d	reg-	1f	reg-	2b-y	reg-	2dd	reg-
2d	-nat,	.	.	2a	-nat,	2dd	-nat,
2d	Chris-	2d	-nat,	2a	Chris-	2ff	Chris-
2c	-tus	2e	Chris-	2a	-tus	2ee	-tus
=82	=82	=82	=82	=82	=82	=82	=82
1.d	im-	1f	-tus	2b-y	im-	2.dd	im-
.	.	.	.	4a	.	.	.
.	.	.	.	4g	.	4cc	.
.	.	[1d	im-	2f	.	4b-y	.
.	.	.	.	.	.	4a	.
2G	-pe-	.	.	[2g	.	[2b-y	.
=83	=83	=83	=83	=83	=83	=83	=83
1G	-rat,	2d]	.	4g]	.	4b-]	.
.	.	.	.	4f	.	4a	.
.	.	4c	.	2d	.	1g	.
.	.	4B-y	.	.	.	.	.
1r	.	1A	-pe-	3e	-pe-	.	.
.	.	.	.	3.c	.	.	.
.	.	.	.	.	.	2f#i	-pe-
.	.	.	.	6B-y	.	.	.
=84	=84	=84	=84	=84	=84	=84	=84
1r	.	1G	-rat,	1d	-rat,	0g	-rat,
2r	.	1B-y	Chris-	1d	Chris-	.	.
[2G	Chris-	.	.	.	.	.	.
=85	=85	=85	=85	=85	=85	=85	=85
2G]	.	2c	.	2e	.	1a	im-
2F	-tus	2.d	.	2f	.	.	.
[1G	im-	.	.	2.d	.	1b-y	.
.	.	4c	.	.	.	.	.
.	.	4B-y	.	.	.	.	.
.	.	4A	.	4c	.	.	.
=86	=86	=86	=86	=86	=86	=86	=86
2G]	.	2B-y	.	2d	-tus	1.g	.
2C	-pe-	2c	.	1e	im-	.	.
1C	-rat,	2G	-tus	.	.	.	.
.	.	[2c	im-	4d	.	2g	-pe-
.	.	.	.	4c	.	.	.
=87	=87	=87	=87	=87	=87	=87	=87
1.G	im-	2c]	.	1.e	.	[0gl	.
.	.	2B-y	-pe-	.	.	.	.
.	.	[1B-yl	.	.	.	.	.
2G	-pe-	.	.	2d	-pe-	.	.
=	=	=	=	=	=	=	=
00G	-rat.	00B-]	-rat.	00d	-rat.	00g]	-rat.
=||	=||	=||	=||	=||	=||	=||	=||
*M2/1	*	*M2/1	*	*M2/1	*	*M2/1	*
*met(C|)	*	*met(C|)	*	*met(C|)	*	*met(C|)	*
!!section: Secunda pars: Rex regum
!!!OMD: Secunda pars: Rex regum
0r	.	0r	.	1r	.	1dd	Rex
.	.	.	.	1d	Rex	[1ff	re-
=88	=88	=88	=88	=88	=88	=88	=88
1d	Rex	1r	.	0f	re-	1ff]	.
[1f	re-	1d	Rex	.	.	1dd	-gum,
=89	=89	=89	=89	=89	=89	=89	=89
1f]	.	0f	re-	1d	-gum,	2r	.
.	.	.	.	.	.	1a	rex
1d	-gum,	.	.	2r	.	.	.
.	.	.	.	2d	rex	[2b-y	re-
=90	=90	=90	=90	=90	=90	=90	=90
1r	.	1d	-gum,	1f	re-	2b-]	.
.	.	.	.	.	.	2a	.
2r	.	1r	.	1d	-gum,	2b-y	.
2G	rex	.	.	.	.	[2dd	.
=91	=91	=91	=91	=91	=91	=91	=91
1B-y	re-	1r	.	2r	.	4dd]	.
.	.	.	.	.	.	4ee	.
.	.	.	.	2f	rex	4ff	.
.	.	.	.	.	.	4dd	.
1G	-gum	2r	.	1b-y	re-	2ee	.
.	.	2d	Rex	.	.	[2dd	.
=92	=92	=92	=92	=92	=92	=92	=92
2r	.	1f	re-	1a	-gum	2dd]	.
2F	et	.	.	.	.	2cc	.
2.B-y	glo-	1d	-gum	2r	.	1dd	-gum
.	.	.	.	2f	et	.	.
4A	-ri-	.	.	.	.	.	.
=93	=93	=93	=93	=93	=93	=93	=93
2B-y	-a	2d	et	2f	glo-	2r	.
2E-X	no-	2e	glo-	2g	-ri-	2b-y	et
1F	-stra	2d	-ri-	2.f	-a	2b-y	glo-
.	.	2c	-a	.	.	2a	-ri-
.	.	.	.	4e-i	.	.	.
=94	=94	=94	=94	=94	=94	=94	=94
0r	.	1d	no-	2f	.	2b-y	-a
.	.	.	.	1g	no-	4a	.
.	.	.	.	.	.	4g	.
.	.	1d	-stra,	.	.	1a	no-
.	.	.	.	2f	.	.	.
=95	=95	=95	=95	=95	=95	=95	=95
2r	.	1r	.	1e	.	1g	-stra,
2G	mi-	.	.	.	.	.	.
2G	-se-	2r	.	1d	-stra,	1r	.
2G	-ri-	2d	mi-	.	.	.	.
=96	=96	=96	=96	=96	=96	=96	=96
1B-y	-cor-	2d	-se-	0r	.	0r	.
.	.	2d	-ri-	.	.	.	.
1A	-di-	1f	-cor-	.	.	.	.
=97	=97	=97	=97	=97	=97	=97	=97
1G	-a	1e	-di-	0r	.	0r	.
2F	et	2d	-a	.	.	.	.
[2G	spes	2d	et	.	.	.	.
=98	=98	=98	=98	=98	=98	=98	=98
4G]	.	2e	spes	2r	.	1r	.
4F	.	.	.	.	.	.	.
4E	.	1d	no-	2g	mi-	.	.
4D	.	.	.	.	.	.	.
1E	no-	.	.	2g	-se-	2r	.
.	.	2c#i	.	2g	-ri-	2g	mi-
=99	=99	=99	=99	=99	=99	=99	=99
0D	-stra,	0d	-stra,	1b-y	-cor-	2dd	-se-
.	.	.	.	.	.	2dd	-ri-
.	.	.	.	1a	-di-	1ff	-cor-
=100	=100	=100	=100	=100	=100	=100	=100
0r	.	0r	.	1g	-a	1ee	-di-
.	.	.	.	2f	et	2dd	-a
.	.	.	.	[2g	spes	2dd	et
=101	=101	=101	=101	=101	=101	=101	=101
2r	.	0r	.	4g]	.	2ee	spes
.	.	.	.	4f	.	.	.
2G	au-	.	.	4e	.	1dd	.
.	.	.	.	4d	.	.	.
2G	-xi-	.	.	1e	no-	.	.
2A	-li-	.	.	.	.	2cc#i	.
=102	=102	=102	=102	=102	=102	=102	=102
2.B-y	-um	0r	.	2d	-stra,	2dd	no-
.	.	.	.	2d	au-	1b-y	.
4c	.	.	.	.	.	.	.
2.d	no-	.	.	2.d	-xi-	.	.
.	.	.	.	.	.	4a	.
4D	.	.	.	4e	-li-	4g	.
=103	=103	=103	=103	=103	=103	=103	=103
1D	-strum	1r	.	2.f	-um	2a	-stra,
.	.	.	.	.	.	2f	au-
.	.	.	.	4e	.	.	.
1r	.	2r	.	4d	.	2g	-xi-
.	.	.	.	4c	.	.	.
.	.	2F	au-	2f	.	2a	-li-
=104	=104	=104	=104	=104	=104	=104	=104
0r	.	2G	-xi-	1e	nos-	2b-y	-um
.	.	2A	-li-	.	.	2cc	.
.	.	2B-y	-um	2d	-strum	1dd	no-
.	.	2c	.	[2g	et	.	.
=105	=105	=105	=105	=105	=105	=105	=105
2r	.	1d	no-	2g]	.	1a	-strum
2D	et	.	.	2f	vic-	.	.
2E	vic-	1G	-strum	2g	-to-	2r	.
[2G	-to-	.	.	[2b-y	-ri-	[2dd	et
=106	=106	=106	=106	=106	=106	=106	=106
2G]	.	1d	et	2b-]	.	2dd]	.
4F	-ri-	.	.	4a	.	2dd	vic-
4E	.	.	.	4g	.	.	.
2D	-a	2.d	vic-	2f	-a	2.ff	-to-
2F	no-	.	.	[2a	no-	.	.
.	.	4c	.	.	.	4ee	.
=107	=107	=107	=107	=107	=107	=107	=107
2G	.	2B-y	-to-	4a]	.	2dd	.
.	.	.	.	4g	.	.	.
2E	.	2G	.	1g	.	2cc	-ri-
1D	-stra,	1A	-ri-	.	.	[1dd	-a
.	.	.	.	2f#i	.	.	.
=108	=108	=108	=108	=108	=108	=108	=108
2r	.	1G	-a	1g	-stra,	0dd]	.
2G	Chris-	.	.	.	.	.	.
2.B-y	-tus	2r	.	2r	.	.	.
.	.	[2g	Chris-	[2b-y	Chris-	.	.
4c	vin-	.	.	.	.	.	.
=109	=109	=109	=109	=109	=109	=109	=109
1d	-cit,	2g]	.	2b-]	.	2r	.
.	.	2f	-tus	2a	-tus	1dd	Chris-
2r	.	1e	vin-	2g	vin-	.	.
2A	Chris-	.	.	2a	-cit,	2cc	-tus
=110	=110	=110	=110	=110	=110	=110	=110
2.B-y	-tus	2d	-cit,	2r	.	2dd	vin-
.	.	1g	Chris-	1b-y	Chris-	2dd	-cit,
4c	reg-	.	.	.	.	.	.
1d	-nat,	.	.	.	.	2r	.
.	.	2f	-tus	2a	-tus	[2dd	Chris-
=111	=111	=111	=111	=111	=111	=111	=111
2r	.	1e	reg-	2g	reg-	2dd]	.
2A	Chris-	.	.	2a	-nat,	2cc	-tus
2.B-y	-tus	2d	-nat,	2r	.	2dd	reg-
.	.	2g	Chris-	[2b-y	Chris-	2dd	-nat,
4c	.	.	.	.	.	.	.
=112	=112	=112	=112	=112	=112	=112	=112
2d	im-	2f	-tus	2b-]	.	2r	.
2B-y	.	2d	.	2g	-tus	1dd	Chris-
1A	-pe-	2e	im-	2.a	im-	.	.
.	.	[2f	.	.	.	2cc	-tus
.	.	.	.	4A	-pe-	.	.
=113	=113	=113	=113	=113	=113	=113	=113
2F	.	4f]	.	2A	-rat,	1.dd	im-
.	.	4e	.	.	.	.	.
2.G	.	4d	.	2B-y	Chris-	.	.
.	.	4c	.	.	.	.	.
.	.	2B-y	.	2G	.	.	.
4F	.	.	.	.	.	.	.
4E	.	[2d	.	[2B-y	.	2g	-pe-
4D	.	.	.	.	.	.	.
=114	=114	=114	=114	=114	=114	=114	=114
1E	-rat,	2d]	.	2B-]	.	1g	-rat,
.	.	2c#i	-pe-	4A	.	.	.
.	.	.	.	4G	.	.	.
1D	Chris-	[1d	-rat,	2A	.	2r	.
.	.	.	.	[2B-y	.	[2b-y	Chris-
=115	=115	=115	=115	=115	=115	=115	=115
1.G	-tus	2d]	.	4B-]	.	2b-]	.
.	.	.	.	4c	.	.	.
.	.	2G	Chris-	2d	.	4a	.
.	.	.	.	.	.	4g	.
.	.	2G	-tus	2G	.	2b-y	.
2F	.	2A	.	2d	.	[2a	-tus
=116	=116	=116	=116	=116	=116	=116	=116
2E	im-	2B-y	im-	2e	-stus	4a]	.
.	.	.	.	.	.	4g	.
2C	.	2c	.	2e	im-	1g	im-
1D	-pe-	1A	-pe-	1d	-pe-	.	.
.	.	.	.	.	.	2f#i	-pe-
=117	=117	=117	=117	=117	=117	=117	=117
1G	-rat.	0G	-rat.	0d	-rat.	0g	-rat.
2r	.	.	.	.	.	.	.
[2G	Ip-	.	.	.	.	.	.
=118	=118	=118	=118	=118	=118	=118	=118
2G]	.	2r	.	0r	.	0r	.
2G	-si	1d	Ip-	.	.	.	.
1B-y	so-	.	.	.	.	.	.
.	.	2d	-si	.	.	.	.
=119	=119	=119	=119	=119	=119	=119	=119
2A	-li	1f	so-	0r	.	0r	.
2.D	im-	.	.	.	.	.	.
.	.	1d	-li	.	.	.	.
4E	.	.	.	.	.	.	.
4F	.	.	.	.	.	.	.
4G	.	.	.	.	.	.	.
=120	=120	=120	=120	=120	=120	=120	=120
2A	.	2c	im-	0r	.	0r	.
1B-y	-pe-	1d	-pe-	.	.	.	.
4A	.	4c	.	.	.	.	.
4G	.	4B-y	.	.	.	.	.
=121	=121	=121	=121	=121	=121	=121	=121
2F	.	2A	.	0r	.	0r	.
2G	.	1d	.	.	.	.	.
1E	-ri-	.	.	.	.	.	.
.	.	2c#i	-ri-	.	.	.	.
=122	=122	=122	=122	=122	=122	=122	=122
1D	-um	1d	-um	0r	.	0r	.
2.G	glo-	1r	.	.	.	.	.
4G	-ri-	.	.	.	.	.	.
=123	=123	=123	=123	=123	=123	=123	=123
2G	-a	2.d	glo-	0r	.	0r	.
2F	et	.	.	.	.	.	.
.	.	4d	-ri-	.	.	.	.
2G	po-	2d	-a	.	.	.	.
[2A	.	2c	et	.	.	.	.
=124	=124	=124	=124	=124	=124	=124	=124
4A]	.	1d	po-	0r	.	0r	.
4F	.	.	.	.	.	.	.
1B-y	.	.	.	.	.	.	.
.	.	1f	-tes-	.	.	.	.
2A	.	.	.	.	.	.	.
=125	=125	=125	=125	=125	=125	=125	=125
2B-y	.	1d	-tas	0r	.	0r	.
1d	-tes-	.	.	.	.	.	.
.	.	2r	.	.	.	.	.
2c	.	2A	per	.	.	.	.
=126	=126	=126	=126	=126	=126	=126	=126
2d	-tas	2B-y	im-	0r	.	0r	.
2D	per-	2A	-mor-	.	.	.	.
2D	-im-	1B-y	-ta-	.	.	.	.
2D	-mor-	.	.	.	.	.	.
=127	=127	=127	=127	=127	=127	=127	=127
1F	-ta-	1A	-li-	0r	.	0r	.
1E	-li-	1G	-a	.	.	.	.
=128	=128	=128	=128	=128	=128	=128	=128
1D	-a	2.B-y	se-	0r	.	0r	.
.	.	4c	-cu-	.	.	.	.
2.F	se-	1d	-lo-	.	.	.	.
4G	-cu-	.	.	.	.	.	.
=129	=129	=129	=129	=129	=129	=129	=129
1A	-lo	2.c	rum	0r	.	0r	.
.	.	4d	.	.	.	.	.
2G	rum	4e	.	.	.	.	.
.	.	4d	.	.	.	.	.
[2A	se-	2f	se-	.	.	.	.
=130	=130	=130	=130	=130	=130	=130	=130
2A]	.	4e	.	0r	.	0r	.
.	.	4d	.	.	.	.	.
4G	.	1d	.	.	.	.	.
4F	.	.	.	.	.	.	.
1E	-cu-	.	.	.	.	.	.
.	.	2c#i	-cu-	.	.	.	.
=131	=131	=131	=131	=131	=131	=131	=131
[0D	-la.	0d	-la.	0r	.	2r	.
.	.	.	.	.	.	1a	Ip-
.	.	.	.	.	.	2a	-si
=132	=132	=132	=132	=132	=132	=132	=132
0D]	.	0r	.	2r	.	1b-y	so-
.	.	.	.	1d	Ip-	.	.
.	.	.	.	.	.	2a	-li
.	.	.	.	2d	-si	[2dd	vir-
=133	=133	=133	=133	=133	=133	=133	=133
0r	.	0r	.	1f	so-	2dd]	.
.	.	.	.	.	.	2cc	.
.	.	.	.	1d	-li	2b-y	.
.	.	.	.	.	.	[2a	.
=134	=134	=134	=134	=134	=134	=134	=134
0r	.	0r	.	2c	vir-	4a]	.
.	.	.	.	.	.	4g	.
.	.	.	.	1d	.	4f	.
.	.	.	.	.	.	4e	.
.	.	.	.	.	.	4f	.
.	.	.	.	.	.	4g	.
.	.	.	.	4c	.	[2a	.
.	.	.	.	4B-y	.	.	.
=135	=135	=135	=135	=135	=135	=135	=135
0r	.	0r	.	2A	.	2a]	.
.	.	.	.	1d	.	4g	.
.	.	.	.	.	.	4f	.
.	.	.	.	.	.	1e	.
.	.	.	.	2c	.	.	.
=136	=136	=136	=136	=136	=136	=136	=136
0r	.	0r	.	1f	.	2d	-tus
.	.	.	.	.	.	2a	for-
.	.	.	.	1e	-tus	2b-y	-ti-
.	.	.	.	.	.	2cc	-tu-
=137	=137	=137	=137	=137	=137	=137	=137
0r	.	0r	.	2r	.	2a	-do
.	.	.	.	2f	for-	1dd	et
.	.	.	.	2g	-ti-	.	.
.	.	.	.	2a	-tu-	2cc	vic-
=138	=138	=138	=138	=138	=138	=138	=138
0r	.	0r	.	2d	-do	2b-y	-to-
.	.	.	.	1g	et	2b-y	-ri-
.	.	.	.	.	.	1a	-a
.	.	.	.	2f	vic-	.	.
=139	=139	=139	=139	=139	=139	=139	=139
0r	.	0r	.	2e	-to-	2r	.
.	.	.	.	2d	-ri-	2a	per
.	.	.	.	1e	-a	2cc	om-
.	.	.	.	.	.	2cc	-ni-
=140	=140	=140	=140	=140	=140	=140	=140
0r	.	0r	.	1r	.	1dd	-a
.	.	.	.	2r	.	2.ff	se-
.	.	.	.	2d	per	.	.
.	.	.	.	.	.	4ee	.
=141	=141	=141	=141	=141	=141	=141	=141
0r	.	0r	.	2f	om-	4dd	.
.	.	.	.	.	.	4cc	.
.	.	.	.	2f	-ni-	1dd	.
.	.	.	.	1g	-a	.	.
.	.	.	.	.	.	4cc	.
.	.	.	.	.	.	4b-y	.
=142	=142	=142	=142	=142	=142	=142	=142
0r	.	0r	.	1a	se-	2.cc	.
.	.	.	.	.	.	4dd	.
.	.	.	.	2g	.	2b-y	-cu-
.	.	.	.	2g	-cu-	2b-y	-la
=143	=143	=143	=143	=143	=143	=143	=143
0r	.	0r	.	2f	-la	4a	.
.	.	.	.	.	.	4b-y	.
.	.	.	.	2.a	se-	4cc	.
.	.	.	.	.	.	4dd	.
.	.	.	.	.	.	2ee	.
.	.	.	.	4g	.	.	.
.	.	.	.	4f	.	[2ff	se-
.	.	.	.	4e	.	.	.
=144	=144	=144	=144	=144	=144	=144	=144
0r	.	0r	.	2d	.	4ff]	.
.	.	.	.	.	.	4ee	.
.	.	.	.	2f	-cu-	1dd	-cu-
.	.	.	.	1e	-lo-	.	.
.	.	.	.	.	.	2cc#i	-lo-
=145	=145	=145	=145	=145	=145	=145	=145
1r	.	0r	.	0d	-rum.	1dd	rum.
[1G	Ip-	.	.	.	.	1r	.
=146	=146	=146	=146	=146	=146	=146	=146
1G]	.	1.d	Ip-	2r	.	1.b-y	Ip-
.	.	.	.	1g	Ip-	.	.
1B-y	-si	.	.	.	.	.	.
.	.	2d	-si	2g	-si	2b-y	-si
=147	=147	=147	=147	=147	=147	=147	=147
1A	so-	1c	so-	1f	so-	1cc	so-
1G	-li	1d	-li	1g	-li	2b-y	-li
.	.	.	.	.	.	[2dd	ho-
=148	=148	=148	=148	=148	=148	=148	=148
0d	ho-	0f	ho-	0a	ho-	2dd]	.
.	.	.	.	.	.	4cc	.
.	.	.	.	.	.	4b-y	.
.	.	.	.	.	.	2a	.
.	.	.	.	.	.	[2dd	.
=149	=149	=149	=149	=149	=149	=149	=149
1G	-nor	1d	-nor	0g	-nor	4dd]	.
.	.	.	.	.	.	4cc	.
.	.	.	.	.	.	1b-y	.
1r	.	1r	.	.	.	.	.
.	.	.	.	.	.	4a	.
.	.	.	.	.	.	4g	.
=150	=150	=150	=150	=150	=150	=150	=150
1.B-y	laus	1.d	laus	0r	.	1f	-nor
.	.	.	.	.	.	1r	.
2B-y	et	2d	et	.	.	.	.
=151	=151	=151	=151	=151	=151	=151	=151
2.A	iu-	2.f	iu-	0r	.	0r	.
4G	-bi-	4e	-bi-	.	.	.	.
2F	-la-	2d	-la-	.	.	.	.
2E	-ti-	2c	-ti-	.	.	.	.
=152	=152	=152	=152	=152	=152	=152	=152
1D	-to	0d	-to	1r	.	0r	.
[1G	laus	.	.	[1b-y	laus	.	.
=153	=153	=153	=153	=153	=153	=153	=153
1G]	.	1r	.	2b-]	.	0r	.
.	.	.	.	2b-y	et	.	.
1F	et	[1f	laus	2.a	iu-	.	.
.	.	.	.	4g	-bi-	.	.
=154	=154	=154	=154	=154	=154	=154	=154
1.BB-y	iu-	1f]	.	2f	-la-	1.dd	laus
.	.	.	.	2e	-ti-	.	.
.	.	1f	et	2d	-to	.	.
2BB-y	-bi-	.	.	2d	et	2dd	et
=155	=155	=155	=155	=155	=155	=155	=155
1C	-la-	2.e	iu-	2.g	iu-	2.cc	iu-
.	.	4d	-bi-	4f	-bi-	4b-y	-bi-
1C	-ti-	2c	-la-	2e	-la-	2a	-la-
.	.	2B-y	-ti-	2e	-ti-	2g	-ti-
=156	=156	=156	=156	=156	=156	=156	=156
[0D	-to	1A	-to	0d	-to	1.f	to
.	.	[1B-y	.	.	.	.	.
.	.	.	.	.	.	2d	per
=157	=157	=157	=157	=157	=157	=157	=157
0D]	.	2B-]	.	2r	.	2d	-in-
.	.	4A	.	1g	per	2.dd	-fi-
.	.	4G	.	.	.	.	.
.	.	1A	.	.	.	.	.
.	.	.	.	.	.	4cc	.
.	.	.	.	2f	in-	2a	.
=158	=158	=158	=158	=158	=158	=158	=158
0r	.	2G	.	2g	-fi-	2b-y	.
.	.	1g	per	2e	-ni-	2g	.
.	.	.	.	1d	-ta	1a	.
.	.	2f	in-	.	.	.	.
=159	=159	=159	=159	=159	=159	=159	=159
2r	.	2g	-fi-	0r	.	2g	.
1G	per	2e	-ni-	.	.	1b-y	.
.	.	1d	.	.	.	.	.
2F	in-	.	.	.	.	2a	.
=160	=160	=160	=160	=160	=160	=160	=160
2G	-fi-	2.B-y	.	2r	.	2b-y	.
2E	-ni-	.	.	1b-y	per	2g	-ni-
.	.	4c	.	.	.	.	.
1D	-ta	[1d	-ta	.	.	1f	-ta
.	.	.	.	2a	in-	.	.
=161	=161	=161	=161	=161	=161	=161	=161
2r	.	2d]	.	2b-y	-fi-	2r	.
1B-y	se-	4c	.	2g	-ni-	1dd	se-
.	.	4B-y	.	.	.	.	.
.	.	2c	.	1f	-ta	.	.
2A	-cu-	[2f	se-	.	.	2cc	-cu-
=162	=162	=162	=162	=162	=162	=162	=162
2B-y	-la	2f]	.	2r	.	2dd	-la
2G	se-	2e	-cu-	2B-y	se-	1b-y	se-
1F	-cu-	1f	-lo-	2c	-cu-	.	.
.	.	.	.	2d	-la	2a	-cu-
=163	=163	=163	=163	=163	=163	=163	=163
2G	-lo-	2e	-rum	2.B-y	se-	2b-y	-lo-
2.B-y	.	2.d	se-	.	.	2g	.
.	.	.	.	4c	.	.	.
.	.	.	.	4d	.	2f	-rum,
4A	.	4c	-cu-	4e	.	.	.
2F	.	2A	-la,	[2f	.	[2a	A-
=164	=164	=164	=164	=164	=164	=164	=164
1G	-rum,	2B-y	A-	2f]	.	4a]	.
.	.	.	.	.	.	4g	.
.	.	2G	.	2e	-cu-	1g	.
1D	A-	1A	.	1d	-lo-	.	.
.	.	.	.	.	.	2f#i	.
=165	=165	=165	=165	=165	=165	=165	=165
1G	-men.	0G	-men	2.B-y	-rum,	1g	-men.
.	.	.	.	4c	.	.	.
1r	.	.	.	1d	A-	[1b-y	Chris-
=166	=166	=166	=166	=166	=166	=166	=166
0B-y	Chris-	1r	.	0G	-men.	1b-]	.
.	.	1d	Chris-	.	.	1b-y	-te,
=167	=167	=167	=167	=167	=167	=167	=167
1F	-te,	1c	.	1r	.	1a	au-
1G	au-	1B-y	-te,	1d	Chris-	[1g	-di
=168	=168	=168	=168	=168	=168	=168	=168
0D	.	0A	au-	1d	-te,	2g]	.
.	.	.	.	.	.	4f#i	.
.	.	.	.	.	.	4e	.
.	.	.	.	[1d	au-	1f#i	.
=169	=169	=169	=169	=169	=169	=169	=169
0E	.	0G	-di	2d]	.	2g	.
.	.	.	.	2c	.	2.cc	.
.	.	.	.	1c	-di	.	.
.	.	.	.	.	.	4b-y	.
.	.	.	.	.	.	4a	.
.	.	.	.	.	.	4g	.
=170	=170	=170	=170	=170	=170	=170	=170
0D;	-di	0A;	.	0d;	.	0f#i;	.
=171	=171	=171	=171	=171	=171	=171	=171
00Gl	nos.	00Gl	nos.	00dl	nos.	00gl	nos.
==	==	==	==	==	==	==	==
*-	*-	*-	*-	*-	*-	*-	*-
!!!system-decoration: [*]
!!!RDF**kern: i = editorial accidental
!!!RDF**kern: l = terminal long
!!!ENC: Simon Frisch
!!!END: 2024/01/28
!!!EED: Benjamin Ory
!!!EEV: 2024/01/28
!!!YEC: Copyright 2024 Simon Frisch, All Rights Reserved
!!!ONB: Translated from MusicXML on 2024/01/28
!!!verovio: header true
!!!header-left: Edited by @{ENC} (2024)\n
!!!header-right: 
!!!header-center: 
